X: 42349
T: Welcome Here Again
R: reel
M: 4/4
K: Gmajor
G2 Bd dBde|GABe dBAB|G2 Bd dBde|gaba g4:|
b2 gb c'bag|fada fada|b2 gb c'bag|fgaf g4:|

